X: 9
%
U:~=!turn!
T: Argyle Bowling Green
C:
O:Scotland
B:Keith Norman MacDonald : "The Skye collection of the best reels & strathspeys extant" : 1887
Z:Ralph Palmer
R:Reel
M:C|
L:1/8
K:D dorian
E | {/B,}C2 {AB}c2 (cd)ed | cdcA {/^F}G^FED | {/B,}C2 {AB}c2 (cd)ed | {/B}cBcE {FE}D3 :|
c | GE {/B}cE {^F}GEEA | {/^F}GE{/B}cE {/F}G2 GA | {/^F}GE{/B}cE {/^F}GEE=F | GAGE {FE}D2 Da |
gec'e (ge)ea | gec'e {/f}g2 (ga) | gec'e geef | gage {/^c}d2 d |]


